X:6
T:Green Grow the rushes O
%%score 1 { 2 | 3 }
L:1/8
Q:1/4=80
M:4/4
I:linebreak $
K:D
V:1 treble nm="Violin"
V:2 treble nm="Piano"
V:3 bass 
V:1
|: A2 A>B AF D2 | B2 B>c dB A2 |$ dcBA Bc d2 | D/E/F/G/ A/B/A/G/ FE D2 |$ AA A>B A/A/F D2 | 
w: Green grow the rush- es, oh!|Green grow the rush- es oh!|Kiss her quick and let her go!|Nev- er mind the we- ther, if the wind don't blow!|Tho' she wears a check- ered silk gown,|
B2 B>c dB A2 |$ dcBA Bc d2 | D/E/F/G/ A/B/A/G/ F[CE] D2 :| 
w: He she must both kneel down,|Then he'll give her one sweet smack,|And she will of course * re- * turn it back.|
V:2
|: [DFA]2 [DFA]>B AF D2 | [DGB]2 [DGB]>c d[DB] [DA]2 |$ [Dd][Dc][DB][DA] [DB][Gc] [Fd]2 | 
D/E/F/G/ A/B/A/G/ [DF][G,CE] [F,D]2 |$ [DFA]2 [DFA]>B AF D2 | [DGB]2 [DGB]>c d[DB] [DA]2 |$ 
[Dd][Dc][DB][DA] [DB][Gc] [Fd]2 | D/E/F/G/ A/B/A/G/ [DF][G,CE] [F,D]2 :| 
V:3
|: D,,A,,D,A,, D,,A,,F,A,, | G,,D,G,A, B,G, F,2 |$ B,A,G,F, G,E, D,2 | 
D,,A,,[C,G,]A,, [D,A,]A,, [D,,A,,D,]2 |$ D,,A,,D,A,, D,,A,,F,A,, | G,,D,G,A, B,G, F,2 |$ 
B,A,G,F, G,E, D,2 | D,,A,,[C,G,]A,, [D,A,]A,, [D,,A,,D,]2 :| 



